Sources/FrostedUI/Resources/Icons.xcassets/pauseCircle32.imageset/pause-circle-32.svg

<svg width="32" height="32" viewBox="0 0 32 32" fill="none" xmlns="http://www.w3.org/2000/svg" data-fui-icon="true">
  <path
    d="M16 1C24.2843 1 31 7.71573 31 16C31 24.2843 24.2843 31 16 31C7.71573 31 1 24.2843 1 16C1 7.71573 7.71573 1 16 1ZM16 2.5C8.54416 2.5 2.5 8.54416 2.5 16C2.5 23.4558 8.54416 29.5 16 29.5C23.4558 29.5 29.5 23.4558 29.5 16C29.5 8.54416 23.4558 2.5 16 2.5ZM12 10C12.4142 10 12.75 10.3358 12.75 10.75V21.25C12.7499 21.6642 12.4142 22 12 22C11.5858 22 11.2501 21.6642 11.25 21.25V10.75C11.25 10.3358 11.5858 10 12 10ZM20 10C20.4142 10 20.75 10.3358 20.75 10.75V21.25C20.7499 21.6642 20.4142 22 20 22C19.5858 22 19.2501 21.6642 19.25 21.25V10.75C19.25 10.3358 19.5858 10 20 10Z"
    fill="currentColor"
  />
</svg>

<svg xmlns="http://www.w3.org/2000/svg" width="32" height="32" fill="none" data-fui-icon="true" viewBox="0 0 32 32"><path fill="currentColor" d="M16 1c8.284 0 15 6.716 15 15s-6.716 15-15 15S1 24.284 1 16 7.716 1 16 1m0 1.5C8.544 2.5 2.5 8.544 2.5 16S8.544 29.5 16 29.5 29.5 23.456 29.5 16 23.456 2.5 16 2.5M12 10a.75.75 0 0 1 .75.75v10.5a.75.75 0 0 1-1.5 0v-10.5A.75.75 0 0 1 12 10m8 0a.75.75 0 0 1 .75.75v10.5a.75.75 0 0 1-1.5 0v-10.5A.75.75 0 0 1 20 10"/></svg>
